assets/mission-right-bg-469aa048.svg

<svg width="296" height="377" viewBox="0 0 296 377" fill="none" xmlns="http://www.w3.org/2000/svg">
<g opacity="0.4">
<path d="M71.803 213.607L317.734 213.607L317.734 210.679L71.803 210.679L71.803 213.607Z" fill="#A30C33"/>
<path d="M329.439 225.315L332.367 225.315L332.367 242.882C332.367 243.321 332.221 243.614 331.928 243.906L242.339 333.203C242.046 333.496 241.753 333.642 241.314 333.642L159.63 333.642L159.63 330.714L240.728 330.714L329.439 242.296L329.439 225.315Z" fill="#A30C33"/>
<path d="M117.177 77.4636L226.968 77.4635C227.407 77.4635 227.7 77.6099 227.993 77.9027L331.928 181.838C332.221 182.131 332.367 182.424 332.367 182.863L332.367 197.501L329.439 197.501L329.439 183.448L226.382 80.3913L117.177 80.3913L117.177 77.4636Z" fill="#A30C33"/>
<path d="M190.376 171.152L249.224 171.152C249.663 171.152 249.956 171.298 250.249 171.591L289.773 210.823L287.724 212.873L248.638 174.08L190.376 174.08L190.376 171.152Z" fill="#A30C33"/>
<path d="M231.068 210.971L233.117 213.02L193.739 252.691C193.446 252.984 193.153 253.13 192.714 253.13L133.281 253.13L133.281 250.203L192.129 250.203L231.068 210.971Z" fill="#A30C33"/>
<path d="M7.39615 285.335L239.86 285.335C240.299 285.335 240.592 285.481 240.885 285.774L264.16 309.343L262.111 311.392L239.274 288.263L7.39615 288.263L7.39615 285.335Z" fill="#A30C33"/>
<path d="M214.677 331.155L216.727 333.205L178.666 371.265C178.373 371.558 178.08 371.705 177.641 371.705L55.7001 371.705L55.7001 368.777L177.055 368.777L214.677 331.155Z" fill="#A30C33"/>
<path d="M190.961 5.73227L249.955 64.7265C250.248 65.0193 250.395 65.3121 250.395 65.7512L250.395 100.884L247.467 100.884L247.467 66.3368L188.912 7.78169L190.961 5.73227Z" fill="#A30C33"/>
<path d="M204.283 78.3453L206.332 80.3947L167.539 119.48C167.247 119.773 166.954 119.919 166.515 119.919L19.1022 119.919L19.1022 116.992L165.783 116.992L204.283 78.3453Z" fill="#A30C33"/>
<path d="M67.4091 36.4737L132.991 36.4737C133.43 36.4737 133.723 36.6201 134.016 36.9129L175.297 78.1942L173.247 80.2437L132.405 39.4015L67.4091 39.4015L67.4091 36.4737Z" fill="#A30C33"/>
<path d="M55.6958 363.506C51.9768 363.506 48.962 366.521 48.962 370.24C48.962 373.959 51.9768 376.974 55.6958 376.974C59.4148 376.974 62.4297 373.959 62.4297 370.24C62.4297 366.521 59.4148 363.506 55.6958 363.506Z" fill="#A30C33"/>
<path d="M146.456 316.663C154.946 316.663 161.973 323.543 161.973 332.18C161.973 340.817 155.092 347.697 146.456 347.697C137.819 347.697 130.938 340.817 130.938 332.18C130.938 323.543 137.965 316.663 146.456 316.663ZM146.456 344.769C153.336 344.769 159.045 339.06 159.045 332.18C159.045 325.299 153.336 319.59 146.456 319.59C139.575 319.59 133.866 325.299 133.866 332.18C133.866 339.06 139.575 344.769 146.456 344.769Z" fill="#A30C33"/>
<path d="M146.461 325.448C142.742 325.448 139.728 328.463 139.728 332.182C139.728 335.901 142.742 338.916 146.461 338.916C150.18 338.916 153.195 335.901 153.195 332.182C153.195 328.463 150.18 325.448 146.461 325.448Z" fill="#A30C33"/>
<path d="M0.657311 286.506C0.657311 282.846 3.73146 279.772 7.39115 279.772C11.0508 279.772 14.125 282.846 14.125 286.506C14.125 290.166 11.0508 293.24 7.39116 293.24C3.73146 293.24 0.657311 290.312 0.657311 286.506Z" fill="#A30C33"/>
<path d="M133.286 244.932C129.567 244.932 126.552 247.947 126.552 251.666C126.552 255.385 129.567 258.4 133.286 258.4C137.005 258.4 140.02 255.385 140.02 251.666C140.02 247.947 137.005 244.932 133.286 244.932Z" fill="#A30C33"/>
<path d="M58.6274 196.624C67.1179 196.624 74.1445 203.504 74.1445 212.141C74.1445 220.777 67.2643 227.658 58.6274 227.658C49.9905 227.658 43.1103 220.777 43.1103 212.141C43.1103 203.504 50.1369 196.624 58.6274 196.624ZM58.6274 224.73C65.5076 224.73 71.2168 219.021 71.2168 212.141C71.2168 205.26 65.5076 199.551 58.6274 199.551C51.7472 199.551 46.0381 205.26 46.0381 212.141C46.0381 219.021 51.7472 224.73 58.6274 224.73Z" fill="#A30C33"/>
<path d="M58.6333 205.409C54.9143 205.409 51.8995 208.424 51.8995 212.143C51.8995 215.862 54.9143 218.876 58.6333 218.876C62.3523 218.876 65.3672 215.862 65.3672 212.143C65.3672 208.424 62.3523 205.409 58.6333 205.409Z" fill="#A30C33"/>
<path d="M190.383 165.881C186.664 165.881 183.649 168.896 183.649 172.615C183.649 176.334 186.664 179.349 190.383 179.349C194.102 179.349 197.117 176.334 197.117 172.615C197.117 168.896 194.102 165.881 190.383 165.881Z" fill="#A30C33"/>
<path d="M19.0982 111.717C15.3792 111.717 12.3643 114.732 12.3643 118.451C12.3643 122.17 15.3792 125.185 19.0982 125.185C22.8172 125.185 25.832 122.17 25.832 118.451C25.832 114.732 22.8172 111.717 19.0982 111.717Z" fill="#A30C33"/>
<path d="M104.006 63.7017C112.497 63.7017 119.523 70.5819 119.523 79.2188C119.523 87.8557 112.643 94.7358 104.006 94.7358C95.3695 94.7358 88.4892 87.8557 88.4892 79.2188C88.4892 70.5819 95.5158 63.7017 104.006 63.7017ZM104.006 91.8081C110.887 91.8081 116.596 86.099 116.596 79.2188C116.596 72.3386 110.887 66.6294 104.006 66.6294C97.1261 66.6294 91.417 72.3386 91.417 79.2188C91.417 86.099 97.1261 91.8081 104.006 91.8081Z" fill="#A30C33"/>
<path d="M97.2745 79.2208C97.2745 75.5611 100.349 72.4869 104.008 72.4869C107.668 72.4869 110.742 75.5611 110.742 79.2208C110.742 82.8805 107.668 85.9546 104.008 85.9546C100.349 85.9546 97.2745 82.8805 97.2745 79.2208Z" fill="#A30C33"/>
<path d="M67.4107 31.2057C63.6917 31.2057 60.6768 34.2205 60.6768 37.9395C60.6768 41.6585 63.6917 44.6733 67.4107 44.6733C71.1297 44.6733 74.1445 41.6585 74.1445 37.9395C74.1445 34.2205 71.1297 31.2057 67.4107 31.2057Z" fill="#A30C33"/>
<path d="M183.196 6.75985C183.196 3.10016 186.271 0.0260105 189.93 0.0260101C193.59 0.0260098 196.664 3.10016 196.664 6.75985C196.664 10.4195 193.59 13.4937 189.93 13.4937C186.124 13.3473 183.196 10.4195 183.196 6.75985Z" fill="#A30C33"/>
<g opacity="0.4">
<path d="M183.196 213.479L320.652 213.479L320.652 210.808L183.196 210.808L183.196 213.479Z" fill="black"/>
<path d="M329.439 225.315L332.367 225.315L332.367 242.882C332.367 243.321 332.221 243.614 331.928 243.906L242.339 333.203C242.046 333.496 241.753 333.642 241.314 333.642L159.63 333.642L159.63 330.714L240.728 330.714L329.439 242.296L329.439 225.315Z" fill="black"/>
<path d="M117.177 77.4636L226.968 77.4635C227.407 77.4635 227.7 77.6099 227.993 77.9027L331.928 181.838C332.221 182.131 332.367 182.424 332.367 182.863L332.367 197.501L329.439 197.501L329.439 183.448L226.382 80.3913L117.177 80.3913L117.177 77.4636Z" fill="black"/>
<path d="M190.372 171.152L249.22 171.152C249.659 171.152 249.952 171.298 250.245 171.591L289.77 210.823L287.72 212.873L248.635 174.08L190.372 174.08L190.372 171.152Z" fill="black"/>
<path d="M231.068 210.971L233.117 213.02L193.739 252.691C193.446 252.984 193.153 253.13 192.714 253.13L153.281 253.13L153.281 250.203L192.129 250.203L231.068 210.971Z" fill="black"/>
<path d="M7.38833 285.335L239.852 285.335C240.291 285.335 240.584 285.481 240.877 285.774L264.152 309.343L262.103 311.392L239.266 288.263L7.38833 288.263L7.38833 285.335Z" fill="black"/>
<path d="M214.669 331.155L216.719 333.205L178.658 371.265C178.365 371.558 178.072 371.705 177.633 371.705L55.6922 371.705L55.6922 368.777L177.048 368.777L214.669 331.155Z" fill="black"/>
<path d="M190.957 5.73227L249.951 64.7265C250.244 65.0193 250.391 65.3121 250.391 65.7512L250.391 100.884L247.463 100.884L247.463 66.3368L188.908 7.78169L190.957 5.73227Z" fill="black"/>
<path d="M204.283 78.3453L206.332 80.3947L167.539 119.48C167.247 119.773 166.954 119.919 166.515 119.919L19.1022 119.919L19.1022 116.992L165.783 116.992L204.283 78.3453Z" fill="black"/>
<path d="M67.4091 36.4737L132.991 36.4737C133.43 36.4737 133.723 36.6201 134.016 36.9129L175.297 78.1942L173.247 80.2437L132.405 39.4015L67.4091 39.4015L67.4091 36.4737Z" fill="black"/>
<path d="M55.6958 363.506C51.9768 363.506 48.962 366.521 48.962 370.24C48.962 373.959 51.9768 376.974 55.6958 376.974C59.4148 376.974 62.4297 373.959 62.4297 370.24C62.4297 366.521 59.4148 363.506 55.6958 363.506Z" fill="black"/>
<path d="M146.459 316.663C154.95 316.663 161.977 323.543 161.977 332.18C161.977 340.817 155.096 347.697 146.459 347.697C137.823 347.697 130.942 340.817 130.942 332.18C130.942 323.543 137.969 316.663 146.459 316.663ZM146.459 344.769C153.34 344.769 159.049 339.06 159.049 332.18C159.049 325.299 153.34 319.59 146.459 319.59C139.579 319.59 133.87 325.299 133.87 332.18C133.87 339.06 139.579 344.769 146.459 344.769Z" fill="black"/>
<path d="M0.653405 286.506C0.653404 282.846 3.72756 279.772 7.38725 279.772C11.0469 279.772 14.1211 282.846 14.1211 286.506C14.1211 290.166 11.0469 293.24 7.38725 293.24C3.72756 293.24 0.653405 290.312 0.653405 286.506Z" fill="black"/>
<path d="M153.286 244.932C149.567 244.932 146.552 247.947 146.552 251.666C146.552 255.385 149.567 258.4 153.286 258.4C157.005 258.4 160.02 255.385 160.02 251.666C160.02 247.947 157.005 244.932 153.286 244.932Z" fill="black"/>
<path d="M190.379 165.881C186.66 165.881 183.646 168.896 183.646 172.615C183.646 176.334 186.66 179.349 190.379 179.349C194.098 179.349 197.113 176.334 197.113 172.615C197.113 168.896 194.098 165.881 190.379 165.881Z" fill="black"/>
<path d="M180.001 206.139C176.282 206.139 173.267 209.154 173.267 212.873C173.267 216.592 176.282 219.606 180.001 219.606C183.72 219.606 186.734 216.592 186.734 212.873C186.734 209.154 183.72 206.139 180.001 206.139Z" fill="black"/>
<path d="M19.0982 111.717C15.3792 111.717 12.3643 114.732 12.3643 118.451C12.3643 122.17 15.3792 125.185 19.0982 125.185C22.8172 125.185 25.832 122.17 25.832 118.451C25.832 114.732 22.8172 111.717 19.0982 111.717Z" fill="black"/>
<path d="M104.002 63.7017C112.493 63.7017 119.519 70.5819 119.519 79.2188C119.519 87.8557 112.639 94.7358 104.002 94.7358C95.3654 94.7358 88.4852 87.8557 88.4852 79.2188C88.4852 70.5819 95.5118 63.7017 104.002 63.7017ZM104.002 91.8081C110.883 91.8081 116.592 86.099 116.592 79.2188C116.592 72.3386 110.883 66.6294 104.002 66.6294C97.1221 66.6294 91.4129 72.3386 91.4129 79.2188C91.4129 86.099 97.1221 91.8081 104.002 91.8081Z" fill="black"/>
<path d="M67.4068 31.2057C63.6878 31.2057 60.6729 34.2205 60.6729 37.9395C60.6729 41.6585 63.6878 44.6733 67.4068 44.6733C71.1258 44.6733 74.1406 41.6585 74.1406 37.9395C74.1406 34.2205 71.1258 31.2057 67.4068 31.2057Z" fill="black"/>
<path d="M183.196 6.75985C183.196 3.10016 186.271 0.0260105 189.93 0.0260101C193.59 0.0260098 196.664 3.10016 196.664 6.75985C196.664 10.4195 193.59 13.4937 189.93 13.4937C186.124 13.3473 183.196 10.4195 183.196 6.75985Z" fill="black"/>
</g>
</g>
</svg>

<svg width="296" height="377" fill="none" xmlns="http://www.w3.org/2000/svg"><g opacity=".4"><path d="M71.803 213.607h245.931v-2.928H71.803v2.928Zm257.636 11.708h2.928v17.567c0 .439-.146.732-.439 1.024l-89.589 89.297c-.293.293-.586.439-1.025.439H159.63v-2.928h81.098l88.711-88.418v-16.981ZM117.177 77.464h109.791c.439 0 .732.146 1.025.439l103.935 103.935c.293.293.439.586.439 1.025v14.638h-2.928v-14.053L226.382 80.391H117.177v-2.927Z" fill="#A30C33"/><path d="M190.376 171.152h58.848c.439 0 .732.146 1.025.439l39.524 39.232-2.049 2.05-39.086-38.793h-58.262v-2.928Zm40.692 39.819 2.049 2.049-39.378 39.671c-.293.293-.586.439-1.025.439h-59.433v-2.927h58.848l38.939-39.232ZM7.396 285.335H239.86c.439 0 .732.146 1.025.439l23.275 23.569-2.049 2.049-22.837-23.129H7.396v-2.928Zm207.281 45.82 2.05 2.05-38.061 38.06c-.293.293-.586.44-1.025.44H55.701v-2.928h121.354l37.622-37.622ZM190.961 5.732l58.994 58.995c.293.292.44.585.44 1.024v35.133h-2.928V66.337L188.912 7.782l2.049-2.05Zm13.322 72.613 2.049 2.05-38.793 39.085c-.292.293-.585.439-1.024.439H19.102v-2.927h146.681l38.5-38.647ZM67.41 36.474h65.581c.439 0 .732.146 1.025.439l41.281 41.281-2.05 2.05L132.405 39.4H67.409v-2.927Z" fill="#A30C33"/><path d="M55.696 363.506a6.734 6.734 0 1 0 0 13.468 6.734 6.734 0 0 0 0-13.468Zm90.76-46.843c8.49 0 15.517 6.88 15.517 15.517s-6.881 15.517-15.517 15.517c-8.637 0-15.518-6.88-15.518-15.517s7.027-15.517 15.518-15.517Zm0 28.106c6.88 0 12.589-5.709 12.589-12.589 0-6.881-5.709-12.59-12.589-12.59-6.881 0-12.59 5.709-12.59 12.59 0 6.88 5.709 12.589 12.59 12.589Z" fill="#A30C33"/><path d="M146.461 325.448a6.733 6.733 0 0 0-6.733 6.734 6.733 6.733 0 1 0 13.467 0 6.734 6.734 0 0 0-6.734-6.734ZM.657 286.506c0-3.66 3.074-6.734 6.734-6.734s6.734 3.074 6.734 6.734-3.074 6.734-6.734 6.734-6.734-2.928-6.734-6.734Zm132.629-41.574a6.734 6.734 0 1 0 0 13.468 6.734 6.734 0 0 0 0-13.468Zm-74.659-48.308c8.49 0 15.517 6.88 15.517 15.517 0 8.636-6.88 15.517-15.517 15.517s-15.517-6.881-15.517-15.517c0-8.637 7.027-15.517 15.517-15.517Zm0 28.106c6.88 0 12.59-5.709 12.59-12.589 0-6.881-5.71-12.59-12.59-12.59s-12.589 5.709-12.589 12.59c0 6.88 5.71 12.589 12.59 12.589Z" fill="#A30C33"/><path d="M58.633 205.409a6.734 6.734 0 1 0 0 13.468 6.734 6.734 0 0 0 0-13.468Zm131.75-39.528a6.734 6.734 0 1 0 0 13.468 6.734 6.734 0 0 0 0-13.468ZM19.098 111.717a6.734 6.734 0 1 0 0 13.468 6.734 6.734 0 0 0 0-13.468Zm84.908-48.015c8.491 0 15.517 6.88 15.517 15.517s-6.88 15.517-15.517 15.517c-8.636 0-15.517-6.88-15.517-15.517s7.027-15.517 15.517-15.517Zm0 28.106c6.881 0 12.59-5.709 12.59-12.59 0-6.88-5.709-12.589-12.59-12.589-6.88 0-12.589 5.71-12.589 12.59s5.71 12.59 12.589 12.59Z" fill="#A30C33"/><path d="M97.275 79.22c0-3.659 3.074-6.733 6.733-6.733 3.66 0 6.734 3.074 6.734 6.734s-3.074 6.734-6.734 6.734c-3.659 0-6.733-3.075-6.733-6.734ZM67.41 31.206a6.734 6.734 0 1 0 0 13.467 6.734 6.734 0 0 0 0-13.467ZM183.196 6.76c0-3.66 3.075-6.734 6.734-6.734 3.66 0 6.734 3.074 6.734 6.734s-3.074 6.734-6.734 6.734c-3.806-.147-6.734-3.075-6.734-6.734Z" fill="#A30C33"/><g opacity=".4" fill="#000"><path d="M183.196 213.479h137.456v-2.671H183.196v2.671Zm146.243 11.836h2.928v17.567c0 .439-.146.732-.439 1.024l-89.589 89.297c-.293.293-.586.439-1.025.439H159.63v-2.928h81.098l88.711-88.418v-16.981ZM117.177 77.464h109.791c.439 0 .732.146 1.025.439l103.935 103.935c.293.293.439.586.439 1.025v14.638h-2.928v-14.053L226.382 80.391H117.177v-2.927Z"/><path d="M190.372 171.152h58.848c.439 0 .732.146 1.025.439l39.525 39.232-2.05 2.05-39.085-38.793h-58.263v-2.928Zm40.696 39.819 2.049 2.049-39.378 39.671c-.293.293-.586.439-1.025.439h-39.433v-2.927h38.848l38.939-39.232ZM7.388 285.335h232.464c.439 0 .732.146 1.025.439l23.275 23.569-2.049 2.049-22.837-23.129H7.388v-2.928Zm207.281 45.82 2.05 2.05-38.061 38.06c-.293.293-.586.44-1.025.44H55.693v-2.928h121.355l37.621-37.622ZM190.957 5.732l58.994 58.995c.293.292.44.585.44 1.024v35.133h-2.928V66.337L188.908 7.782l2.049-2.05Zm13.326 72.613 2.049 2.05-38.793 39.085c-.292.293-.585.439-1.024.439H19.102v-2.927h146.681l38.5-38.647ZM67.41 36.474h65.581c.439 0 .732.146 1.025.439l41.281 41.281-2.05 2.05L132.405 39.4H67.409v-2.927Z"/><path d="M55.696 363.506a6.734 6.734 0 1 0 0 13.468 6.734 6.734 0 0 0 0-13.468Zm90.763-46.843c8.491 0 15.518 6.88 15.518 15.517s-6.881 15.517-15.518 15.517c-8.636 0-15.517-6.88-15.517-15.517s7.027-15.517 15.517-15.517Zm0 28.106c6.881 0 12.59-5.709 12.59-12.589 0-6.881-5.709-12.59-12.59-12.59-6.88 0-12.589 5.709-12.589 12.59 0 6.88 5.709 12.589 12.589 12.589ZM.653 286.506c0-3.66 3.075-6.734 6.734-6.734 3.66 0 6.734 3.074 6.734 6.734s-3.074 6.734-6.734 6.734-6.734-2.928-6.734-6.734Zm152.633-41.574a6.734 6.734 0 1 0 0 13.468 6.734 6.734 0 0 0 0-13.468Zm37.093-79.051a6.733 6.733 0 0 0-6.733 6.734 6.733 6.733 0 1 0 13.467 0 6.734 6.734 0 0 0-6.734-6.734Zm-10.378 40.258a6.734 6.734 0 1 0 0 13.468 6.734 6.734 0 0 0 0-13.468ZM19.098 111.717a6.734 6.734 0 1 0 0 13.468 6.734 6.734 0 0 0 0-13.468Zm84.904-48.015c8.491 0 15.517 6.88 15.517 15.517s-6.88 15.517-15.517 15.517-15.517-6.88-15.517-15.517 7.027-15.517 15.517-15.517Zm0 28.106c6.881 0 12.59-5.709 12.59-12.59 0-6.88-5.709-12.589-12.59-12.589-6.88 0-12.59 5.71-12.59 12.59s5.71 12.59 12.59 12.59ZM67.407 31.206a6.734 6.734 0 1 0 0 13.467 6.734 6.734 0 0 0 0-13.467ZM183.196 6.76c0-3.66 3.075-6.734 6.734-6.734 3.66 0 6.734 3.074 6.734 6.734s-3.074 6.734-6.734 6.734c-3.806-.147-6.734-3.075-6.734-6.734Z"/></g></g></svg>
